icons/line/users.svg

<svg width="24" height="24" viewBox="0 0 24 24" fill="none" xmlns="http://www.w3.org/2000/svg">
<path fill-rule="evenodd" clip-rule="evenodd" d="M5 9C5 6.79086 6.79086 5 9 5C9.89398 5 10.7195 5.29327 11.3855 5.78885C11.3949 5.7962 11.4044 5.80336 11.4141 5.81033C12.3776 6.54072 13 7.69768 13 9C13 10.3023 12.3776 11.4593 11.4141 12.1897C11.4044 12.1966 11.3949 12.2038 11.3855 12.2111C10.7195 12.7067 9.89398 13 9 13C6.79086 13 5 11.2091 5 9ZM9 3C10.0929 3 11.1176 3.29222 12.0002 3.8028C12.883 3.29234 13.9083 3 15 3C18.3137 3 21 5.68629 21 9C21 10.9443 20.0752 12.6725 18.6415 13.769C21.1863 14.9067 23 17.2079 23 20C23 20.5523 22.5523 21 22 21H16H8H2C1.44772 21 1 20.5523 1 20C1 17.2079 2.81374 14.9067 5.35847 13.769C3.92478 12.6725 3 10.9443 3 9C3 5.68629 5.68629 3 9 3ZM8 19H14.8764C14.3289 16.8027 12.0162 15 9 15C5.98385 15 3.67112 16.8027 3.12364 19H8ZM16.9208 19H20.8764C20.3289 16.8027 18.0162 15 15 15C14.8609 15 14.7229 14.9953 14.5862 14.9859C15.8106 16.0238 16.6657 17.4097 16.9208 19ZM15 13C17.2091 13 19 11.2091 19 9C19 6.79086 17.2091 5 15 5C14.5317 5 14.0829 5.08016 13.666 5.22757C14.5002 6.25818 15 7.57073 15 9C15 10.4293 14.5002 11.7418 13.666 12.7724C14.0829 12.9198 14.5317 13 15 13Z" fill="currentColor"/>
</svg>

<svg width="24" height="24" fill="none" xmlns="http://www.w3.org/2000/svg"><path fill-rule="evenodd" clip-rule="evenodd" d="M5 9a4 4 0 118 0 4 4 0 01-8 0zm4-6c1.093 0 2.118.292 3 .803a6 6 0 016.641 9.966C21.187 14.907 23 17.208 23 20a1 1 0 01-1 1H2a1 1 0 01-1-1c0-2.792 1.814-5.093 4.358-6.231A6 6 0 019 3zM8 19h6.876c-.547-2.197-2.86-4-5.876-4-3.016 0-5.329 1.803-5.876 4H8zm8.92 0h3.956c-.547-2.197-2.86-4-5.876-4-.14 0-.277-.005-.414-.014 1.225 1.038 2.08 2.424 2.335 4.014zM15 13a4 4 0 10-1.334-7.772A5.975 5.975 0 0115 9c0 1.43-.5 2.742-1.334 3.772.417.148.866.228 1.334.228z" fill="currentColor"/></svg>
